images/twitter.svg

<svg width="23" height="18" viewBox="0 0 23 18" fill="none" xmlns="http://www.w3.org/2000/svg">
<path opacity="0.6" d="M22.142 2.13513C21.3277 2.49594 20.453 2.73973 19.5334 2.84992C20.4822 2.28218 21.1921 1.38861 21.5305 0.33596C20.6391 0.865461 19.6634 1.23817 18.646 1.43789C17.9618 0.707364 17.0556 0.22316 16.068 0.0604525C15.0804 -0.102255 14.0668 0.0656378 13.1844 0.538065C12.302 1.01049 11.6003 1.76102 11.1882 2.67313C10.776 3.58523 10.6766 4.60789 10.9052 5.58232C9.0989 5.49162 7.33186 5.02214 5.71875 4.20432C4.10564 3.38651 2.68251 2.23865 1.54173 0.835242C1.15166 1.5081 0.927376 2.28823 0.927376 3.11906C0.926941 3.86701 1.11113 4.60349 1.4636 5.26318C1.81606 5.92286 2.32591 6.48535 2.94791 6.90073C2.22656 6.87778 1.52112 6.68287 0.89032 6.33221V6.39072C0.890248 7.43974 1.25311 8.45648 1.91734 9.26841C2.58157 10.0803 3.50625 10.6375 4.53449 10.8453C3.86532 11.0264 3.16375 11.053 2.48276 10.9233C2.77286 11.8259 3.33797 12.6152 4.09895 13.1807C4.85994 13.7462 5.77871 14.0595 6.72665 14.0769C5.11747 15.3402 3.13015 16.0254 1.08438 16.0224C0.721989 16.0225 0.359908 16.0013 0 15.959C2.07658 17.2941 4.49387 18.0027 6.96264 18C15.3197 18 19.8884 11.0783 19.8884 5.07523C19.8884 4.8802 19.8835 4.68322 19.8747 4.48819C20.7634 3.84553 21.5305 3.04973 22.14 2.13805L22.142 2.13513Z" fill="white"/>
</svg>

<svg width="23" height="18" fill="none" xmlns="http://www.w3.org/2000/svg"><path opacity=".6" d="M22.142 2.135a9.097 9.097 0 0 1-2.609.715A4.554 4.554 0 0 0 21.53.336a9.069 9.069 0 0 1-2.884 1.102 4.544 4.544 0 0 0-7.74 4.144A12.9 12.9 0 0 1 1.541.835 4.544 4.544 0 0 0 2.948 6.9 4.531 4.531 0 0 1 .89 6.333v.059a4.544 4.544 0 0 0 3.644 4.454c-.669.181-1.37.208-2.051.078a4.545 4.545 0 0 0 4.244 3.154 9.116 9.116 0 0 1-5.643 1.945c-.362 0-.724-.02-1.084-.063A12.849 12.849 0 0 0 6.963 18c8.357 0 12.925-6.922 12.925-12.925 0-.195-.005-.392-.013-.587a9.233 9.233 0 0 0 2.265-2.35l.002-.003Z" fill="#fff"/></svg>
